logos/microcosm.svg

<?xml version="1.0" encoding="UTF-8"?>
<svg width="256px" height="256px" viewBox="0 0 256 256" version="1.1" xmlns="http://www.w3.org/2000/svg" xmlns:xlink="http://www.w3.org/1999/xlink" preserveAspectRatio="xMidYMid">
	<g>
		<path d="M217.7675,59.0417 C216.9885,59.8207 217.5005,62.3207 216.7115,63.0947 C196.3245,92.1007 167.2875,124.4267 146.8995,144.4357 C126.9165,164.8237 91.8275,196.2127 63.2095,216.5957 C62.4265,217.3797 59.7885,217.0087 59.0105,217.7977 C49.6035,210.7437 41.7635,202.1197 35.0975,192.3127 C31.1775,186.4407 27.6475,180.1687 24.5215,173.4987 C18.2455,159.3867 14.7205,144.1077 14.7205,127.6347 C14.7205,64.9287 65.2825,14.3617 127.9935,14.3617 C144.4605,14.3617 160.1345,17.8867 173.8615,24.1687 C180.5175,26.9097 186.3945,30.4457 192.2765,34.3547 C201.6945,41.7947 210.3175,49.6397 217.7675,59.0417" fill="#184AE8"></path>
		<path d="M241.2861,128.0339 C241.2861,190.7489 190.7191,241.3009 128.0031,241.3009 C109.5781,241.3009 91.9411,236.9819 76.6571,229.1529 C70.3801,226.0279 64.5091,222.0969 59.0261,217.7779 C59.8051,217.3939 60.9831,216.6049 61.7721,215.8159 C90.7781,195.4279 124.4821,164.8689 144.4811,144.4709 C164.8641,124.4889 195.4321,90.3739 215.8201,61.7629 C216.5991,60.9889 216.9941,59.7999 217.7881,59.0259 C222.0971,64.5039 226.0071,70.3959 229.1521,76.6519 C236.5821,92.3669 241.2861,109.6039 241.2861,128.0339" fill="#184AE8"></path>
		<path d="M231.4892,73.1526 C230.7102,74.3256 229.9112,75.5046 228.7482,76.6776 C207.5812,105.6786 177.7962,138.6096 158.1872,158.2036 C138.1992,178.1806 105.2682,207.9916 76.6572,228.7636 C75.4832,229.5376 74.3052,230.3416 73.1322,231.5056 C50.0032,247.9676 33.1502,255.8066 21.0022,255.8066 C14.7252,255.8066 10.0212,253.8396 6.1072,249.9296 C-5.2578,238.5596 -0.9488,215.4466 20.6132,177.8176 L22.1912,175.8446 L24.5222,173.4986 C27.5692,180.0366 31.1332,186.3306 35.0972,192.3126 C18.6292,222.1076 18.6452,234.2606 20.2132,236.2186 L21.3862,236.2186 C24.5172,236.2186 34.7132,234.6346 59.4102,217.3986 C60.1942,217.0146 61.3672,216.2256 62.1462,215.4306 C91.1572,195.0436 124.8622,164.4846 144.8652,144.0916 C165.2532,124.1096 195.8172,89.9996 216.1992,61.3786 C216.9882,60.5996 217.3732,59.4106 218.1672,58.6366 C239.7222,27.6736 236.5972,19.4446 236.5972,19.4446 C234.6352,18.2766 222.4862,18.2766 192.6962,34.7236 C186.8242,30.7936 180.9372,27.2736 174.2712,24.5326 L178.5862,20.6126 C216.2152,-0.9484 238.9442,-5.2574 250.7092,6.1076 C261.6582,17.8816 255.7862,38.6646 231.4892,73.1526" fill="#FF6464"></path>
	</g>
</svg>

<svg width="256" height="256" xmlns="http://www.w3.org/2000/svg" preserveAspectRatio="xMidYMid">
	<path d="M217.768 59.042c-.78.779-.268 3.279-1.056 4.053-20.387 29.006-49.424 61.332-69.813 81.34-19.983 20.389-55.072 51.778-83.69 72.16-.783.785-3.42.414-4.199 1.203-9.407-7.054-17.246-15.678-23.913-25.485-3.92-5.872-7.45-12.144-10.576-18.814-6.276-14.112-9.8-29.391-9.8-45.864 0-62.706 50.561-113.273 113.272-113.273 16.468 0 32.142 3.525 45.869 9.807 6.656 2.74 12.532 6.277 18.415 10.186 9.418 7.44 18.04 15.285 25.49 24.687" fill="#184AE8"/>
	<path d="M241.286 128.034c0 62.715-50.567 113.267-113.283 113.267-18.425 0-36.062-4.32-51.346-12.148-6.277-3.125-12.148-7.056-17.63-11.375.778-.384 1.956-1.173 2.745-1.962 29.006-20.388 62.71-50.947 82.71-71.345 20.382-19.982 50.95-54.097 71.338-82.708.78-.774 1.174-1.963 1.968-2.737 4.31 5.478 8.22 11.37 11.364 17.626 7.43 15.715 12.134 32.952 12.134 51.382" fill="#184AE8"/>
	<path d="M231.49 73.153c-.78 1.173-1.579 2.352-2.742 3.525-21.167 29-50.952 61.932-70.56 81.526-19.989 19.977-52.92 49.788-81.53 70.56-1.175.774-2.353 1.578-3.526 2.742-23.129 16.462-39.982 24.3-52.13 24.3-6.277 0-10.98-1.966-14.895-5.876-11.365-11.37-7.056-34.483 14.506-72.112l1.578-1.973 2.331-2.346c3.047 6.538 6.611 12.832 10.575 18.814-16.468 29.795-16.452 41.948-14.884 43.906h1.173c3.131 0 13.327-1.584 38.024-18.82.784-.384 1.957-1.173 2.736-1.968 29.011-20.387 62.716-50.946 82.72-71.34C165.252 124.11 195.816 90 216.198 61.38c.79-.78 1.174-1.968 1.968-2.742 21.555-30.963 18.43-39.192 18.43-39.192-1.962-1.168-14.11-1.168-43.9 15.279-5.873-3.93-11.76-7.45-18.426-10.191l4.315-3.92c37.63-21.561 60.358-25.87 72.123-14.505 10.95 11.774 5.077 32.557-19.22 67.045" fill="#FF6464"/>
</svg>
